X:89
T: Jinluo yi zhu wo kai yan
N: C1582
O: China,Jiangsu, Liuhe
S: III, 480]
R: Shange, Tiange, Gedongdai]
M: 2/4
L: 1/16
K: Bb
c4f4 | c4c2B2 | c8- | c8 |
c2c2c2B2 | c4z4 | c2c2c2B2 | c4z4 |
c2c2c2B2 | c4B2c2 | d4d2g2 | f2c2c2B2 | c8- | c8 |
c2c2c2B2 | f2d4f2c4 | c2f2d2c2 | c2B2G2z2 |
G2G2G2B2 | c2f2d2c2 | c2B2G2F2 | F2=E2F4 |
G2G2G2B2 | d2c2c2B2 | G2D2F2G2 | c2B2G2F2 | F2=E2F4- | F8 |
f2=e2g2f2 | f2c2c2B2 | c8- | c8 |
c2c2c2B2 | c4z4 | c2c2c2B2 | c4z4 |
c2c2c2B2 | c4B2c2 | d4d2g2 | f2c2c2B2 | c8- | c8 |
c2B2c4 | G2B2c4 | f2=efg2f2 | c2B2c4 |
c2fff2f2 | g2gfe2c2 | f2ccc2B2 | c8

@@@ Tune index: 6644
